svgs/solid/sunglasses.svg

<svg xmlns="http://www.w3.org/2000/svg" viewBox="0 0 576 512"><!--! Font Awesome Pro 6.0.0-alpha3 by @fontawesome - https://fontawesome.com License - https://fontawesome.com/license (Commercial License) --><path d="M574.1 280.4l-45.38-181.7c-5.875-23.75-21.5-43.1-43-55.75c-21.5-11.88-47-14.12-70.25-6.375L400.3 41.64c-8.375 2.75-12.88 11.87-10 20.25l5 15.12c2.75 8.375 11.88 12.87 20.25 10.12l13.12-4.375c10.88-3.625 23.04-3.625 33.17 1.75c10.25 5.25 17.71 14.62 20.46 25.75l38.38 153.9C494.4 255.9 467 251.8 439.5 251.6c-34.75 0-74 6.998-114.9 26.75H251.4C210.5 258.6 171.4 251.6 136.5 251.6c-27.5 .125-54.92 4.251-81.17 12.5l38.38-153.9C96.5 99.14 104 89.76 114.3 84.51C124.4 79.14 136.5 79.14 147.4 82.76L160.5 87.14c4 1.375 8.375 1.01 12.25-.8648c3.75-1.875 6.625-5.26 8-9.26l5-15.21C188.6 53.43 183.1 44.39 175.7 41.64l-15.25-5.125c-23.25-7.748-48.71-5.5-70.21 6.375c-21.5 11.75-37.13 31.1-43 55.75L1.875 280.4C.75 285.5 .125 290.6 0 295.9v70.25C0 428.1 51.62 480 115.3 480h37.04c60.38 0 110.5-46 114.1-105.4l2.875-38.62h35.75l2.875 38.62C313.3 433.1 363.3 480 423.7 480h37.04C524.4 480 576 428.1 576 366.1v-70.25C576 290.6 575.4 285.5 574.1 280.4zM64.25 367.9C64.25 367.3 64 366.8 64 366.1v-37.62c23.25-8.373 47.88-12.75 72.63-12.87c9.125 0 18.12 1.25 27.12 2.5L64.25 367.9zM372.4 365.9l-2.875-37.37c22.38-8.498 46-12.87 70-12.87c9.5 .125 19.12 .875 28.62 2.25L372.4 365.9z"/></svg>

<svg xmlns="http://www.w3.org/2000/svg" viewBox="0 0 576 512"><!-- Font Awesome Pro 6.0.0-alpha2 by @fontawesome - https://fontawesome.com License - https://fontawesome.com/license (Commercial License) --><path d="M574.125 280.387L528.75 98.646C522.875 74.898 507.25 54.65 485.75 42.9C464.25 31.025 438.75 28.777 415.5 36.525L400.25 41.65C391.875 44.4 387.375 53.525 390.25 61.9L395.25 77.023C398 85.398 407.125 89.898 415.5 87.148L428.625 82.773C439.5 79.148 451.625 79.148 461.75 84.523C472 89.773 479.5 99.146 482.25 110.271L520.625 264.137C494.375 255.889 467 251.764 439.5 251.639C404.75 251.639 365.5 258.639 324.625 278.387H251.375C210.5 258.639 171.375 251.639 136.5 251.639C109 251.764 81.625 255.889 55.375 264.137L93.75 110.271C96.5 99.146 104 89.773 114.25 84.523C124.375 79.148 136.5 79.148 147.375 82.773L160.5 87.148C164.5 88.523 168.875 88.148 172.75 86.273C176.5 84.398 179.375 81.023 180.75 77.023L185.75 61.775C188.625 53.4 184 44.4 175.75 41.65L160.5 36.525C137.25 28.777 111.75 31.025 90.25 42.9C68.75 54.65 53.125 74.898 47.25 98.646L1.875 280.387C0.75 285.512 0.125 290.637 0 295.885V366.131C0 429.002 51.625 480 115.25 480H152.25C212.625 480 262.75 434.002 267.25 374.631L270.125 336.008H305.875L308.75 374.631C313.25 434.002 363.375 480 423.75 480H460.75C524.375 480 576 429.002 576 366.131V295.885C576 290.637 575.375 285.512 574.125 280.387ZM64.25 367.881C64.25 367.256 64 366.756 64 366.131V328.508C87.25 320.135 111.875 315.76 136.625 315.635C145.75 315.635 154.75 316.885 163.75 318.135L64.25 367.881ZM372.375 365.881L369.5 328.508C391.875 320.01 415.5 315.635 439.5 315.635C449 315.76 458.625 316.51 468.125 317.885L372.375 365.881Z"/></svg>
